X:1
T:Title
%%score { ( 1 3 ) | ( 2 4 ) }
L:1/8
M:6/8
K:Ab
V:1 treble nm="Grand Piano"
V:3 treble 
V:2 bass 
V:4 bass 
V:1
 z3 z2[Q:1/4=90] [CE] | [CA][CA][CA] [Ec][DB][CA] | AGG G2 E | BBB Bcd | [Ec]3- [Ec]2 c | %5
 eee cc[_Ge] | [Fd][Fd][Fd] [DF]2 [Fd] | cBA AGB |[M:5/8] [CEA]-[CEA]- [CEA]3 |[M:1/8] z | %10
[M:3/4] z2 z .A3 | G3 .F3 | [=DF][DG] [DA][DG] [Dc][DB] |[M:7/8] B2 =D E3 G | %14
[M:3/4] .[CA]2 [Ec][Ec] z [EA] | [DF][Fd] [Fd] [Fd]2 [Af] | [Ae]>[Af] [Ae][Ge]/[Gd]/- [Gd][DEB] | %17
[M:5/8] [CEA]-[CEA]- [CEA]3 |] %18
V:2
 z3 z2 [A,,A,] | [A,,E,][A,,E,][A,,E,] [A,,A,][A,,E,][A,,E,] | [E,C][E,B,][E,B,] [E,B,]2 [E,G,B,] | %3
 [E,G,E][E,G,E][E,G,E] [E,G,E][E,A,E][E,B,E] | [A,,A,]3- [A,,A,]2[K:treble] [A,E] | %5
 [A,CA][A,CA][A,CA] [A,E][K:bass][A,E][C,A,] | [D,A,][D,A,][D,A,] [D,A,]2 [D,A,] | %7
 [E,A,E][E,G,D][E,A,C] [E,CE][E,B,E][E,DE] |[M:5/8] A,,-A,,- A,,3 |[M:1/8][K:treble] E | %10
[M:3/4] c4[K:bass] z2 | z2 [D,A,][D,A,D] [D,A,][D,A,D] | %12
 [B,,B,][B,,B,] [B,,B,][B,,B,] [B,,F,][B,,F,] |[M:7/8] [E,G,E]2 [F,A,B,] [E,G,B,]3 [E,D] | %14
[M:3/4] .[A,,E,]2 [A,,A,][A,,A,] z [C,A,] | [D,A,][D,A,] [D,A,] [D,A,]2 [D,D] | %16
 [E,C]>[E,D] [E,C][E,C]/[E,B,]/- [E,B,]E, |[M:5/8] A,,-A,,- A,,3 |] %18
V:3
 x6 | x6 | x6 | x6 | x6 | x6 | x6 | x6 |[M:5/8] x5 |[M:1/8] x |[M:3/4] z2 [A,E][CE] [CE]E | %11
 z2 .D2 DF | x6 |[M:7/8] x7 |[M:3/4] x6 | x6 | x6 |[M:5/8] x5 |] %18
V:4
 x6 | x6 | x6 | x6 | x5[K:treble] x | x4[K:bass] x2 | x6 | x6 |[M:5/8] x5 |[M:1/8][K:treble] x | %10
[M:3/4] z2[K:bass] A,,A,, .A,,2 | x6 | x6 |[M:7/8] x7 |[M:3/4] x6 | x6 | x6 |[M:5/8] x5 |] %18

